theme/dist/icons/instagram.svg

<svg fill="none" height="24" viewBox="0 0 24 24" width="24" xmlns="http://www.w3.org/2000/svg"><path d="m11.9991 8.87653c-1.7203 0-3.12418 1.40387-3.12418 3.12417 0 1.7204 1.40388 3.1243 3.12418 3.1243s3.1243-1.4039 3.1243-3.1243c0-1.7203-1.404-3.12417-3.1243-3.12417zm9.3703 3.12417c0-1.2937.0118-2.57574-.0609-3.86714-.0726-1.5-.4148-2.83125-1.5117-3.92813-1.0992-1.09922-2.4281-1.43906-3.9281-1.51172-1.2938-.07265-2.5758-.06093-3.8672-.06093-1.2938 0-2.5758-.01172-3.86721.06093-1.5.07266-2.83125.41485-3.92812 1.51172-1.09922 1.09922-1.43907 2.42813-1.51172 3.92813-.07266 1.29375-.06094 2.57574-.06094 3.86714 0 1.2915-.01172 2.5758.06094 3.8672.07265 1.5.41484 2.8313 1.51172 3.9282 1.09921 1.0992 2.42812 1.439 3.92812 1.5117 1.29375.0726 2.57581.0609 3.86721.0609 1.2937 0 2.5758.0117 3.8672-.0609 1.5-.0727 2.8312-.4149 3.9281-1.5117 1.0992-1.0993 1.4391-2.4282 1.5117-3.9282.075-1.2914.0609-2.5734.0609-3.8672zm-9.3703 4.8071c-2.66012 0-4.807-2.1469-4.807-4.8071 0-2.66011 2.14688-4.80699 4.807-4.80699 2.6602 0 4.8071 2.14688 4.8071 4.80699 0 2.6602-2.1469 4.8071-4.8071 4.8071zm5.0039-8.6883c-.6211 0-1.1226-.50157-1.1226-1.12266s.5015-1.12266 1.1226-1.12266 1.1227.50157 1.1227 1.12266c.0002.14748-.0287.29355-.0851.42984-.0563.13629-.139.26013-.2433.36441-.1043.10429-.2281.18697-.3644.24333-.1363.05635-.2824.08526-.4299.08508z" fill="#000"/></svg>

<svg width="24" height="24" viewBox="0 0 24 24" fill="none" xmlns="http://www.w3.org/2000/svg"><path d="M11.9991 8.87653C10.2788 8.87653 8.87492 10.2804 8.87492 12.0007 8.87492 13.7211 10.2788 15.125 11.9991 15.125 13.7194 15.125 15.1234 13.7211 15.1234 12.0007 15.1234 10.2804 13.7194 8.87653 11.9991 8.87653zM21.3694 12.0007C21.3694 10.707 21.3812 9.42496 21.3085 8.13356 21.2359 6.63356 20.8937 5.30231 19.7968 4.20543 18.6976 3.10621 17.3687 2.76637 15.8687 2.69371 14.5749 2.62106 13.2929 2.63278 12.0015 2.63278 10.7077 2.63278 9.4257 2.62106 8.13429 2.69371 6.63429 2.76637 5.30304 3.10856 4.20617 4.20543 3.10695 5.30465 2.7671 6.63356 2.69445 8.13356 2.62179 9.42731 2.63351 10.7093 2.63351 12.0007 2.63351 13.2922 2.62179 14.5765 2.69445 15.8679 2.7671 17.3679 3.10929 18.6992 4.20617 19.7961 5.30538 20.8953 6.63429 21.2351 8.13429 21.3078 9.42804 21.3804 10.7101 21.3687 12.0015 21.3687 13.2952 21.3687 14.5773 21.3804 15.8687 21.3078 17.3687 21.2351 18.6999 20.8929 19.7968 19.7961 20.896 18.6968 21.2359 17.3679 21.3085 15.8679 21.3835 14.5765 21.3694 13.2945 21.3694 12.0007zM11.9991 16.8078C9.33898 16.8078 7.1921 14.6609 7.1921 12.0007 7.1921 9.34059 9.33898 7.19371 11.9991 7.19371 14.6593 7.19371 16.8062 9.34059 16.8062 12.0007 16.8062 14.6609 14.6593 16.8078 11.9991 16.8078zM17.003 8.1195C16.3819 8.1195 15.8804 7.61793 15.8804 6.99684 15.8804 6.37575 16.3819 5.87418 17.003 5.87418 17.6241 5.87418 18.1257 6.37575 18.1257 6.99684 18.1259 7.14432 18.097 7.29039 18.0406 7.42668 17.9843 7.56297 17.9016 7.68681 17.7973 7.79109 17.693 7.89538 17.5692 7.97806 17.4329 8.03442 17.2966 8.09077 17.1505 8.11968 17.003 8.1195z" fill="#000"/></svg>
